X: 338
T: THE STREAMS OF BUNCLODY
T: Na amhne bhunchlodaigh
B: O'Neill's 338
M: 3/4
L: 1/8
Z: 1999 by John Chambers <jc@trillian.mit.edu>
N: "Moderate"
N: "Collected by Hartnett"
K:G
gf \
| e2 d2 BA | G2 G2 GA | Bc d2 dB | e2 d2 gf \
| e2 d2 BA | G2 G2 GA | B3   edB | A4 gf |
| e2 d2 BA | G2 G2 GA | Bc d2 dB | e2 d2 gf \
| e2 d2 Bc | d2 dg dB | A2 G2 G2 | G4 ||
|| GA \
| B2 d2 ef | g2 g2 fg | a3   gfd | e2 d2 gf \
| e2 d2 BA | G2 G2 GA | B3   edB | A4 gf |
| e2 d2 BA | G2 G2 GA | Bc d2 dB | e2 d2 gf \
| e2 d2 Bc | d2 dg dB | A2 G2 G2 | G4 ||


